changelog/background.svg

<?xml version="1.0" encoding="UTF-8"?>
<svg id="Layer_1" data-name="Layer 1" xmlns="http://www.w3.org/2000/svg" viewBox="0 0 1366 768">
  <defs>
    <style>
      .cls-1 {
        fill: #ff9f00;
        opacity: .5;
      }

      .cls-2 {
        fill: #ffc26d;
        opacity: .5;
      }
    </style>
  </defs>
  <rect class="cls-1" width="1366" height="768"/>
  <path class="cls-2" d="m382,19c-9.09,55.22-155.97,63.98-156,115-.02,34,65.21,42.03,94,104,17.05,36.7,19.08,83.93,2,122-31.49,70.18-118.66,87.15-159,95-45.93,8.94-106.63,10.32-163-2.9V0h380.41c1.97,6.74,2.55,13.14,1.59,19Z"/>
  <path class="cls-1" d="m180,411c-59.43,25.52-127.01-2.14-180-41.11V0h247.72c-2.62,13.22-6.88,26.09-12.72,38-42.35,86.37-154.06,93.45-151,126,3.56,37.88,154.19,22.1,183,91,20.5,49.04-25.46,129.57-87,156Z"/>
  <path class="cls-2" d="m1366,413.88v354.12h-447.57c-84.57-58.96-127.9-102.8-131.43-151-6.38-86.98,72.53-181.51,155-210,54.44-18.81,87.25-.61,256,14,81.59,7.06,117.17,31.72,151,9,7-4.7,12.53-10.16,17-16.12Z"/>
  <path class="cls-1" d="m1366,768h-307.56c-112.34-130.94-166.51-201.66-150.44-244,31.65-83.41,227.04-125.36,350-60,53.17,28.26,81.63,70.65,108,86.65v217.35Z"/>
</svg>

<svg width="1366" height="768" viewBox="0 0 1366 768" fill="none" xmlns="http://www.w3.org/2000/svg">
<g clip-path="url(#clip0_719_97)">
<rect width="1366" height="768" fill="#FF9F00"/>
<path opacity="0.5" d="M382 19C372.91 74.22 226.03 82.98 226 134C225.98 168 291.21 176.03 320 238C337.05 274.7 339.08 321.93 322 360C290.51 430.18 203.34 447.15 163 455C117.07 463.94 56.37 465.32 0 452.1V0H380.41C382.38 6.74 382.96 13.14 382 19Z" fill="white" fill-opacity="0.3"/>
<path opacity="0.5" d="M180 411C120.57 436.52 52.99 408.86 0 369.89V0H247.72C245.1 13.22 240.84 26.09 235 38C192.65 124.37 80.94 131.45 84 164C87.56 201.88 238.19 186.1 267 255C287.5 304.04 241.54 384.57 180 411Z" fill="white" fill-opacity="0.5"/>
<path opacity="0.5" d="M1366 413.88V768H918.43C833.86 709.04 790.53 665.2 787 617C780.62 530.02 859.53 435.49 942 407C996.44 388.19 1029.25 406.39 1198 421C1279.59 428.06 1315.17 452.72 1349 430C1356 425.3 1361.53 419.84 1366 413.88Z" fill="white" fill-opacity="0.3"/>
<path opacity="0.5" d="M1366 768H1058.44C946.1 637.06 891.93 566.34 908 524C939.65 440.59 1135.04 398.64 1258 464C1311.17 492.26 1339.63 534.65 1366 550.65V768Z" fill="white" fill-opacity="0.5"/>
</g>
<defs>
<clipPath id="clip0_719_97">
<rect width="1366" height="768" fill="white"/>
</clipPath>
</defs>
</svg>
